outputs/icons/enterprise/solutions_round.svg

<svg xmlns="http://www.w3.org/2000/svg" width="1200" height="1200" fill="none"><path fill="#000" d="M428.104 1091.935a63.39 63.39 0 0 0-23.182-48.59 109.1 109.1 0 0 1-30.299-40.515 109.1 109.1 0 0 1-8.761-49.83 109.676 109.676 0 0 1 104.017-102.86 109.34 109.34 0 0 1 80.646 30.11 109.318 109.318 0 0 1 33.875 79.135 109.1 109.1 0 0 1-10.485 46.79 109.1 109.1 0 0 1-29.53 37.775 62.7 62.7 0 0 0-16.69 21.765 62.6 62.6 0 0 0-5.79 26.805 7.5 7.5 0 0 0 2.2 5.285c1.4 1.4 3.3 2.19 5.28 2.195H850.01V779.38a7.44 7.44 0 0 1 7.385-7.48 62.6 62.6 0 0 1 26.855 5.765 62.6 62.6 0 0 1 21.81 16.695 109.2 109.2 0 0 0 37.775 29.54 109.1 109.1 0 0 0 46.79 10.495c14.8.005 29.445-3 43.05-8.825a109.4 109.4 0 0 0 36.1-25.055 109.4 109.4 0 0 0 23.32-37.245 109.2 109.2 0 0 0 6.78-43.415 109.7 109.7 0 0 0-31.56-71.655 109.72 109.72 0 0 0-71.305-32.36 109.1 109.1 0 0 0-49.83 8.76 109.1 109.1 0 0 0-40.515 30.3 63.4 63.4 0 0 1-21.82 17.045 63.4 63.4 0 0 1-27.005 6.135 8.02 8.02 0 0 1-5.55-2.44 8.02 8.02 0 0 1-2.26-5.625V349.984h-320.7a7.497 7.497 0 0 1-7.48-7.48 62.639 62.639 0 0 1 22.475-48.571 109.1 109.1 0 0 0 29.53-37.776 109.1 109.1 0 0 0 10.49-46.786 109.4 109.4 0 0 0-8.825-43.043 109.4 109.4 0 0 0-25.05-36.096 109.4 109.4 0 0 0-80.65-30.111 109.679 109.679 0 0 0-104.017 102.863 109.094 109.094 0 0 0 39.06 90.345 63.4 63.4 0 0 1 23.183 48.589 8.048 8.048 0 0 1-8.047 8.066H100V678.08h8.065a63.446 63.446 0 0 0 48.591-23.18 109.06 109.06 0 0 1 90.366-39.06 109.696 109.696 0 0 1 102.844 104.015 109.3 109.3 0 0 1-6.78 43.415 109.36 109.36 0 0 1-59.422 62.3 109.3 109.3 0 0 1-43.048 8.825 109.1 109.1 0 0 1-46.79-10.495 109.16 109.16 0 0 1-37.774-29.54 62.7 62.7 0 0 0-21.768-16.675 62.8 62.8 0 0 0-26.804-5.785H100V1100h320.057c1.058 0 2.107-.21 3.085-.615s1.865-1 2.612-1.75a8.04 8.04 0 0 0 2.35-5.7"/></svg>

<svg width="1200" height="1200" viewBox="0 0 1200 1200" fill="none" xmlns="http://www.w3.org/2000/svg"><path d="M428.104 1091.935C428.043 1082.63 425.933 1073.455 421.927 1065.055C417.921 1056.66 412.115 1049.245 404.922 1043.345C391.787 1032.4 381.408 1018.52 374.623 1002.83C367.839 987.135 364.838 970.065 365.862 953C367.505 926.06 379.025 900.675 398.216 881.695C417.406 862.715 442.922 851.48 469.879 850.14C484.659 849.44 499.427 851.75 513.29 856.925C527.15 862.1 539.82 870.035 550.525 880.25C561.23 890.46 569.755 902.74 575.58 916.345C581.4 929.945 584.405 944.59 584.4 959.385C584.42 975.565 580.835 991.55 573.915 1006.175C566.995 1020.8 556.91 1033.705 544.385 1043.95C537.285 1049.88 531.585 1057.315 527.695 1065.715C523.81 1074.11 521.83 1083.265 521.905 1092.52C521.91 1094.505 522.7 1096.4 524.105 1097.805C525.505 1099.205 527.405 1099.995 529.385 1100H850.01V779.38C850 777.41 850.77 775.52 852.155 774.115C853.54 772.715 855.425 771.92 857.395 771.9C866.66 771.81 875.835 773.78 884.25 777.665C892.67 781.545 900.115 787.25 906.06 794.36C916.31 806.885 929.21 816.975 943.835 823.9C958.46 830.825 974.445 834.41 990.625 834.395C1005.425 834.4 1020.07 831.395 1033.675 825.57C1047.28 819.745 1059.56 811.225 1069.775 800.515C1079.985 789.805 1087.92 777.135 1093.095 763.27C1098.27 749.41 1100.58 734.64 1099.875 719.855C1098.53 692.9 1087.29 667.39 1068.315 648.2C1049.335 629.01 1023.95 617.49 997.01 615.84C979.945 614.815 962.875 617.815 947.18 624.6C931.49 631.385 917.61 641.765 906.665 654.9C900.735 662.12 893.285 667.94 884.845 671.945C876.405 675.955 867.185 678.05 857.84 678.08C855.745 678.025 853.75 677.15 852.29 675.64C850.83 674.135 850.02 672.115 850.03 670.015V349.984H529.33C527.345 349.979 525.445 349.189 524.045 347.788C522.64 346.386 521.855 344.486 521.85 342.504C521.775 333.25 523.75 324.096 527.64 315.697C531.525 307.299 537.225 299.866 544.325 293.933C556.85 283.687 566.935 270.783 573.855 256.157C580.78 241.532 584.36 225.551 584.345 209.371C584.345 194.574 581.34 179.931 575.52 166.328C569.695 152.726 561.175 140.446 550.47 130.232C539.76 120.019 527.095 112.085 513.23 106.909C499.369 101.733 484.6 99.424 469.82 100.121C442.863 101.465 417.349 112.701 398.157 131.679C378.966 150.657 367.447 176.045 365.803 202.984C364.779 220.051 367.781 237.119 374.565 252.812C381.35 268.505 391.728 282.384 404.863 293.329C412.057 299.231 417.861 306.643 421.868 315.04C425.875 323.438 427.984 332.614 428.046 341.918C428.048 342.977 427.841 344.025 427.438 345.004C427.035 345.982 426.442 346.871 425.695 347.62C424.948 348.37 424.061 348.964 423.083 349.37C422.106 349.775 421.058 349.984 419.999 349.984H100V678.08H108.065C117.369 678.015 126.544 675.905 134.941 671.9C143.338 667.895 150.751 662.09 156.656 654.9C167.602 641.76 181.484 631.38 197.181 624.595C212.879 617.81 229.952 614.81 247.022 615.84C273.957 617.495 299.338 629.015 318.311 648.205C337.285 667.395 348.519 692.905 349.866 719.855C350.567 734.64 348.26 749.41 343.086 763.27C337.911 777.135 329.977 789.805 319.763 800.515C309.549 811.225 297.268 819.745 283.664 825.57C270.059 831.395 255.415 834.4 240.616 834.395C224.434 834.41 208.452 830.825 193.826 823.9C179.201 816.975 166.298 806.885 156.052 794.36C150.115 787.265 142.681 781.57 134.284 777.685C125.886 773.805 116.732 771.83 107.48 771.9H100V1100H420.057C421.115 1100 422.164 1099.79 423.142 1099.385C424.119 1098.98 425.007 1098.385 425.754 1097.635C426.502 1096.885 427.094 1096 427.498 1095.02C427.9 1094.04 428.106 1092.995 428.104 1091.935Z" fill="black"/></svg>
